X: 104
T: Donald MacLean's Farewell to Oban
M: 4/4
L: 1/8
K: A
A>B |"A"c2 B<A e2 f>e|"A"c<e A>B c2 a2|"D"f>e a>f "E"e<f A>c|"A"e>c B<A "E7"B2 A>B |
| "A"c2 B<A e2 f>e | "A"c<e A>B c2 a2 | "D"f>e f<a "E"e<f A>B | "A"c2 A2 "A"A2 :|
|: c>d | "A"e2 c>d e2 f>g | "D"a2 f>g "Bm"a3 f | "A"e>c a>f "E"e<f A>c | "A"e>c B<A "E7"B2 c>d |
| "A"e2 c>d e2 f>g | "D"a2 f>g "Bm"a3 f | "A"e>c a<f "E"e<f A>B | "A"c2 A2 "A"A2 :|
|: A>B | "A"c<A c>d e>A d>e | "D"f>A e<A "A"c2 f>g | "F#m"a>A d>e f<A c>d | "A"e>c B<A "E7"B2 A>B |
| "A"c>A c>d e>A d>e | "D"f>A e<A "A"c2 f>g | "F#m"a2 a>f "E"e<f A>B | "A"c2 A2 "A"A2 :|
[| c2| "A"e2 a>e c2  a>e | "D"f>g a>f d2 a>f | "A"e2 f>e c2 A>c | "A"e>c B<A "E"B2 c>d |
| "A"e2 a>e c2  a>e | "D"f>g a>f d2 a2 | "D"f>e a>f "E"e<f A>B | "A"c2 A2 A2 c>d |
| "A"e2 a>e c2  a>e | "D"f>g a>f d2 a>f | "A"e2 f>e c2 A>c | "A"e>c B<A "E"B2 A>B |
 "A"c<e d<f e>c B<A | "D"d>c B<A c2 a2 | "A"f>e a>f "E"e<f A>B | "A"c2 A2 A2 |]
